X:10
T: Katie Farrell's
C: L.Mallette
Z: B.Black
R: jig
M: 6/8
L: 1/8
K: Em
BGE EGB | AFD DFA | BGE EGB | e2 f gfe |
dBG DGB | AFD DFA | B2 A Bcd | efg e3 :|
e2 f edB | GAB AFD | E2 F GAB | cBA B2 d |
e2 f edB | GAB AFD |1 E2 F G2 B | AFD E2 d :|
|2 GFE AGF | BFD E3 ||
